Newaita/actions/32/document-open-folder.svg

<svg height="32" viewBox="0 0 32 32" width="32" xmlns="http://www.w3.org/2000/svg"><g fill="#424242"><path d="m13.792969 4.222656c-1.121094.003906-2.320313.066406-3.464844.636719-1.125.5625-1.964844 1.730469-2.265625 3.328125h-2.769531c-1.464844 0-2.648438 1.179688-2.648438 2.648438v14.550781c0 1.46875 1.183594 2.648437 2.648438 2.648437h21.167969c1.464843 0 2.644531-1.179687 2.644531-2.648437v-11.734375c.015625-.117188.015625-.234375 0-.347656v-2.46875c0-1.46875-1.179688-2.648438-2.644531-2.648438v3.976562h-11.90625c-1.324219 0-2.476563-.070312-3.050782-.359374-.574218-.285157-.925781-.601563-.925781-2.292969 0-1.691407.351563-2.007813.925781-2.296875.574219-.285156 1.726563-.355469 3.050782-.355469.472656.007813.914062-.242187 1.15625-.652344.238281-.410156.238281-.917969 0-1.328125-.242188-.410156-.683594-.660156-1.15625-.652344-.25 0-.503907-.003906-.761719-.003906zm-7.179688 6.613282h1.449219c.300781 1.597656 1.140625 2.765624 2.265625 3.328124 1.410156.703126 2.902344.632813 4.226563.632813h11.90625v9.269531c0 .730469-.589844 1.320313-1.324219 1.320313h-18.523438c-.730469 0-1.320312-.589844-1.320312-1.320313v-11.910156c0-.730469.589843-1.320312 1.320312-1.320312zm0 0"/><path d="m14.554688 4.21875v2.644531h10.582031c.734375 0 1.324219.59375 1.324219 1.324219v9.261719c1.464843 0 2.644531-1.179688 2.644531-2.644531v-7.941407c0-1.464843-1.179688-2.644531-2.644531-2.644531zm0 0"/></g></svg>

<svg xmlns="http://www.w3.org/2000/svg" xmlns:xlink="http://www.w3.org/1999/xlink" width="32px" height="32px" viewBox="0 0 32 32" version="1.1">
<g id="surface1">
     <defs>
  <style id="current-color-scheme" type="text/css">
   .ColorScheme-Text { color:#424242; } .ColorScheme-Highlight { color:#eeeeee; }
  </style>
 </defs>
<path style="fill:currentColor" class="ColorScheme-Text" d="M 13.792969 4.222656 C 12.671875 4.226562 11.472656 4.289062 10.328125 4.859375 C 9.203125 5.421875 8.363281 6.589844 8.0625 8.1875 L 5.292969 8.1875 C 3.828125 8.1875 2.644531 9.367188 2.644531 10.835938 L 2.644531 25.386719 C 2.644531 26.855469 3.828125 28.035156 5.292969 28.035156 L 26.460938 28.035156 C 27.925781 28.035156 29.105469 26.855469 29.105469 25.386719 L 29.105469 13.652344 C 29.121094 13.535156 29.121094 13.417969 29.105469 13.304688 L 29.105469 10.835938 C 29.105469 9.367188 27.925781 8.1875 26.460938 8.1875 L 26.460938 12.164062 L 14.554688 12.164062 C 13.230469 12.164062 12.078125 12.09375 11.503906 11.804688 C 10.929688 11.519531 10.578125 11.203125 10.578125 9.511719 C 10.578125 7.820312 10.929688 7.503906 11.503906 7.214844 C 12.078125 6.929688 13.230469 6.859375 14.554688 6.859375 C 15.027344 6.867188 15.46875 6.617188 15.710938 6.207031 C 15.949219 5.796875 15.949219 5.289062 15.710938 4.878906 C 15.46875 4.46875 15.027344 4.21875 14.554688 4.226562 C 14.304688 4.226562 14.050781 4.222656 13.792969 4.222656 Z M 6.613281 10.835938 L 8.0625 10.835938 C 8.363281 12.433594 9.203125 13.601562 10.328125 14.164062 C 11.738281 14.867188 13.230469 14.796875 14.554688 14.796875 L 26.460938 14.796875 L 26.460938 24.066406 C 26.460938 24.796875 25.871094 25.386719 25.136719 25.386719 L 6.613281 25.386719 C 5.882812 25.386719 5.292969 24.796875 5.292969 24.066406 L 5.292969 12.15625 C 5.292969 11.425781 5.882812 10.835938 6.613281 10.835938 Z M 6.613281 10.835938 "/>
     <defs>
  <style id="current-color-scheme" type="text/css">
   .ColorScheme-Text { color:#424242; } .ColorScheme-Highlight { color:#eeeeee; }
  </style>
 </defs>
<path style="fill:currentColor" class="ColorScheme-Text" d="M 14.554688 4.21875 L 14.554688 6.863281 L 25.136719 6.863281 C 25.871094 6.863281 26.460938 7.457031 26.460938 8.1875 L 26.460938 17.449219 C 27.925781 17.449219 29.105469 16.269531 29.105469 14.804688 L 29.105469 6.863281 C 29.105469 5.398438 27.925781 4.21875 26.460938 4.21875 Z M 14.554688 4.21875 "/>
</g>
</svg>
